images/50273063.svg

<?xml version="1.0" encoding="UTF-8"?>
<svg xmlns="http://www.w3.org/2000/svg" xmlns:xlink="http://www.w3.org/1999/xlink" width="300pt" height="300pt" viewBox="0 0 300 300" version="1.1">
<defs>
<g>
<symbol overflow="visible" id="glyph0-0">
<path style="stroke:none;" d="M 0.640625 2.296875 L 0.640625 -9.171875 L 7.140625 -9.171875 L 7.140625 2.296875 Z M 1.375 1.578125 L 6.421875 1.578125 L 6.421875 -8.4375 L 1.375 -8.4375 Z M 1.375 1.578125 "/>
</symbol>
<symbol overflow="visible" id="glyph0-1">
<path style="stroke:none;" d="M 1.28125 -9.484375 L 6.71875 -9.484375 L 6.71875 -8.390625 L 2.5625 -8.390625 L 2.5625 -5.609375 L 6.3125 -5.609375 L 6.3125 -4.53125 L 2.5625 -4.53125 L 2.5625 0 L 1.28125 0 Z M 1.28125 -9.484375 "/>
</symbol>
<symbol overflow="visible" id="glyph0-2">
<path style="stroke:none;" d="M 1.28125 -9.484375 L 3 -9.484375 L 7.203125 -1.546875 L 7.203125 -9.484375 L 8.453125 -9.484375 L 8.453125 0 L 6.71875 0 L 2.515625 -7.921875 L 2.515625 0 L 1.28125 0 Z M 1.28125 -9.484375 "/>
</symbol>
</g>
</defs>
<g id="surface17937">
<rect x="0" y="0" width="300" height="300" style="fill:rgb(100%,100%,100%);fill-opacity:1;stroke:none;"/>
<path style="fill:none;stroke-width:1.2;stroke-linecap:butt;stroke-linejoin:miter;stroke:rgb(20%,80%,80%);stroke-opacity:1;stroke-miterlimit:10;" d="M 42.164062 50.441406 L 48.464844 65.34375 "/>
<path style="fill:none;stroke-width:1.2;stroke-linecap:butt;stroke-linejoin:miter;stroke:rgb(0%,0%,0%);stroke-opacity:1;stroke-miterlimit:10;" d="M 48.464844 65.34375 L 54.765625 80.25 "/>
<path style=" stroke:none;fill-rule:nonzero;fill:rgb(100%,100%,100%);fill-opacity:1;" d="M 34.164062 42.441406 L 42.164062 42.441406 L 42.164062 58.441406 L 34.164062 58.441406 Z M 34.164062 42.441406 "/>
<g style="fill:rgb(20%,80%,80%);fill-opacity:1;">
  <use xlink:href="#glyph0-1" x="34.164062" y="54.817383"/>
</g>
<path style="fill:none;stroke-width:1.2;stroke-linecap:butt;stroke-linejoin:miter;stroke:rgb(0%,0%,0%);stroke-opacity:1;stroke-miterlimit:10;" d="M 54.765625 80.25 L 86.878906 84.238281 "/>
<path style="fill:none;stroke-width:1.2;stroke-linecap:butt;stroke-linejoin:miter;stroke:rgb(0%,0%,0%);stroke-opacity:1;stroke-miterlimit:10;" d="M 57.035156 88.203125 L 82.726562 91.398438 "/>
<path style="fill:none;stroke-width:1.2;stroke-linecap:butt;stroke-linejoin:miter;stroke:rgb(0%,0%,0%);stroke-opacity:1;stroke-miterlimit:10;" d="M 35.25 106.066406 L 54.765625 80.25 "/>
<path style="fill:none;stroke-width:1.2;stroke-linecap:butt;stroke-linejoin:miter;stroke:rgb(0%,0%,0%);stroke-opacity:1;stroke-miterlimit:10;" d="M 86.878906 84.238281 L 99.480469 114.046875 "/>
<path style="fill:none;stroke-width:1.2;stroke-linecap:butt;stroke-linejoin:miter;stroke:rgb(0%,0%,0%);stroke-opacity:1;stroke-miterlimit:10;" d="M 99.480469 114.046875 L 79.964844 139.863281 "/>
<path style="fill:none;stroke-width:1.2;stroke-linecap:butt;stroke-linejoin:miter;stroke:rgb(0%,0%,0%);stroke-opacity:1;stroke-miterlimit:10;" d="M 91.453125 112.039062 L 75.84375 132.691406 "/>
<path style="fill:none;stroke-width:1.2;stroke-linecap:butt;stroke-linejoin:miter;stroke:rgb(0%,0%,0%);stroke-opacity:1;stroke-miterlimit:10;" d="M 79.964844 139.863281 L 47.851562 135.875 "/>
<path style="fill:none;stroke-width:1.2;stroke-linecap:butt;stroke-linejoin:miter;stroke:rgb(0%,0%,0%);stroke-opacity:1;stroke-miterlimit:10;" d="M 79.964844 139.863281 L 92.566406 169.671875 "/>
<path style="fill:none;stroke-width:1.2;stroke-linecap:butt;stroke-linejoin:miter;stroke:rgb(0%,0%,0%);stroke-opacity:1;stroke-miterlimit:10;" d="M 47.851562 135.875 L 35.25 106.066406 "/>
<path style="fill:none;stroke-width:1.2;stroke-linecap:butt;stroke-linejoin:miter;stroke:rgb(0%,0%,0%);stroke-opacity:1;stroke-miterlimit:10;" d="M 53.605469 129.929688 L 43.523438 106.082031 "/>
<path style="fill:none;stroke-width:1.2;stroke-linecap:butt;stroke-linejoin:miter;stroke:rgb(0%,0%,0%);stroke-opacity:1;stroke-miterlimit:10;" d="M 92.566406 169.671875 L 75.859375 197.386719 "/>
<path style="fill:none;stroke-width:1.2;stroke-linecap:butt;stroke-linejoin:miter;stroke:rgb(0%,0%,0%);stroke-opacity:1;stroke-miterlimit:10;" d="M 97.417969 176.375 L 84.050781 198.546875 "/>
<path style="fill:none;stroke-width:1.2;stroke-linecap:butt;stroke-linejoin:miter;stroke:rgb(0%,0%,0%);stroke-opacity:1;stroke-miterlimit:10;" d="M 124.089844 177 L 92.566406 169.671875 "/>
<path style="fill:none;stroke-width:1.2;stroke-linecap:butt;stroke-linejoin:miter;stroke:rgb(0%,0%,0%);stroke-opacity:1;stroke-miterlimit:10;" d="M 75.859375 197.386719 L 86.457031 209.617188 "/>
<path style="fill:none;stroke-width:1.2;stroke-linecap:butt;stroke-linejoin:miter;stroke:rgb(0%,0%,100%);stroke-opacity:1;stroke-miterlimit:10;" d="M 86.457031 209.617188 L 97.054688 221.84375 "/>
<path style="fill:none;stroke-width:1.2;stroke-linecap:butt;stroke-linejoin:miter;stroke:rgb(0%,0%,0%);stroke-opacity:1;stroke-miterlimit:10;" d="M 46.050781 209.988281 L 75.859375 197.386719 "/>
<path style="fill:none;stroke-width:1.2;stroke-linecap:butt;stroke-linejoin:miter;stroke:rgb(0%,0%,100%);stroke-opacity:1;stroke-miterlimit:10;" d="M 97.054688 221.84375 L 126.863281 209.242188 "/>
<path style="fill:none;stroke-width:1.2;stroke-linecap:butt;stroke-linejoin:miter;stroke:rgb(0%,0%,100%);stroke-opacity:1;stroke-miterlimit:10;" d="M 97.054688 221.84375 L 88.703125 235.699219 "/>
<path style="fill:none;stroke-width:1.2;stroke-linecap:butt;stroke-linejoin:miter;stroke:rgb(0%,0%,0%);stroke-opacity:1;stroke-miterlimit:10;" d="M 88.703125 235.699219 L 80.347656 249.558594 "/>
<path style=" stroke:none;fill-rule:nonzero;fill:rgb(100%,100%,100%);fill-opacity:1;" d="M 92.054688 213.84375 L 102.054688 213.84375 L 102.054688 229.84375 L 92.054688 229.84375 Z M 92.054688 213.84375 "/>
<g style="fill:rgb(0%,0%,100%);fill-opacity:1;">
  <use xlink:href="#glyph0-2" x="92.054688" y="226.219727"/>
</g>
<path style="fill:none;stroke-width:1.2;stroke-linecap:butt;stroke-linejoin:miter;stroke:rgb(0%,0%,100%);stroke-opacity:1;stroke-miterlimit:10;" d="M 126.863281 209.242188 L 125.476562 193.121094 "/>
<path style="fill:none;stroke-width:1.2;stroke-linecap:butt;stroke-linejoin:miter;stroke:rgb(0%,0%,0%);stroke-opacity:1;stroke-miterlimit:10;" d="M 125.476562 193.121094 L 124.089844 177 "/>
<path style="fill:none;stroke-width:1.2;stroke-linecap:butt;stroke-linejoin:miter;stroke:rgb(0%,0%,100%);stroke-opacity:1;stroke-miterlimit:10;" d="M 119 206.671875 L 117.890625 193.773438 "/>
<path style="fill:none;stroke-width:1.2;stroke-linecap:butt;stroke-linejoin:miter;stroke:rgb(0%,0%,0%);stroke-opacity:1;stroke-miterlimit:10;" d="M 117.890625 193.773438 L 116.78125 180.875 "/>
<path style=" stroke:none;fill-rule:nonzero;fill:rgb(100%,100%,100%);fill-opacity:1;" d="M 121.863281 201.242188 L 131.863281 201.242188 L 131.863281 217.242188 L 121.863281 217.242188 Z M 121.863281 201.242188 "/>
<g style="fill:rgb(0%,0%,100%);fill-opacity:1;">
  <use xlink:href="#glyph0-2" x="121.863281" y="213.618164"/>
</g>
<path style="fill:none;stroke-width:1.2;stroke-linecap:butt;stroke-linejoin:miter;stroke:rgb(0%,0%,0%);stroke-opacity:1;stroke-miterlimit:10;" d="M 124.089844 177 L 148.542969 155.804688 "/>
<path style="fill:none;stroke-width:1.2;stroke-linecap:butt;stroke-linejoin:miter;stroke:rgb(0%,0%,0%);stroke-opacity:1;stroke-miterlimit:10;" d="M 148.542969 155.804688 L 163.835938 161.09375 "/>
<path style="fill:none;stroke-width:1.2;stroke-linecap:butt;stroke-linejoin:miter;stroke:rgb(0%,0%,100%);stroke-opacity:1;stroke-miterlimit:10;" d="M 163.835938 161.09375 L 179.128906 166.382812 "/>
<path style="fill:none;stroke-width:1.2;stroke-linecap:butt;stroke-linejoin:miter;stroke:rgb(0%,0%,0%);stroke-opacity:1;stroke-miterlimit:10;" d="M 154.09375 149.664062 L 166.324219 153.898438 "/>
<path style="fill:none;stroke-width:1.2;stroke-linecap:butt;stroke-linejoin:miter;stroke:rgb(0%,0%,100%);stroke-opacity:1;stroke-miterlimit:10;" d="M 166.324219 153.898438 L 178.558594 158.128906 "/>
<path style="fill:none;stroke-width:1.2;stroke-linecap:butt;stroke-linejoin:miter;stroke:rgb(0%,0%,0%);stroke-opacity:1;stroke-miterlimit:10;" d="M 142.414062 124.027344 L 148.542969 155.804688 "/>
<path style="fill:none;stroke-width:1.2;stroke-linecap:butt;stroke-linejoin:miter;stroke:rgb(0%,0%,100%);stroke-opacity:1;stroke-miterlimit:10;" d="M 179.128906 166.382812 L 191.355469 155.785156 "/>
<path style="fill:none;stroke-width:1.2;stroke-linecap:butt;stroke-linejoin:miter;stroke:rgb(0%,0%,0%);stroke-opacity:1;stroke-miterlimit:10;" d="M 191.355469 155.785156 L 203.582031 145.1875 "/>
<path style=" stroke:none;fill-rule:nonzero;fill:rgb(100%,100%,100%);fill-opacity:1;" d="M 174.128906 158.382812 L 184.128906 158.382812 L 184.128906 174.382812 L 174.128906 174.382812 Z M 174.128906 158.382812 "/>
<g style="fill:rgb(0%,0%,100%);fill-opacity:1;">
  <use xlink:href="#glyph0-2" x="174.128906" y="170.758789"/>
</g>
<path style="fill:none;stroke-width:1.2;stroke-linecap:butt;stroke-linejoin:miter;stroke:rgb(0%,0%,0%);stroke-opacity:1;stroke-miterlimit:10;" d="M 203.582031 145.1875 L 197.453125 113.410156 "/>
<path style="fill:none;stroke-width:1.2;stroke-linecap:butt;stroke-linejoin:miter;stroke:rgb(0%,0%,0%);stroke-opacity:1;stroke-miterlimit:10;" d="M 195.492188 143.453125 L 190.589844 118.03125 "/>
<path style="fill:none;stroke-width:1.2;stroke-linecap:butt;stroke-linejoin:miter;stroke:rgb(0%,0%,0%);stroke-opacity:1;stroke-miterlimit:10;" d="M 203.582031 145.1875 L 234.167969 155.769531 "/>
<path style="fill:none;stroke-width:1.2;stroke-linecap:butt;stroke-linejoin:miter;stroke:rgb(0%,0%,0%);stroke-opacity:1;stroke-miterlimit:10;" d="M 197.453125 113.410156 L 166.871094 102.832031 "/>
<path style="fill:none;stroke-width:1.2;stroke-linecap:butt;stroke-linejoin:miter;stroke:rgb(0%,0%,0%);stroke-opacity:1;stroke-miterlimit:10;" d="M 166.871094 102.832031 L 142.414062 124.027344 "/>
<path style="fill:none;stroke-width:1.2;stroke-linecap:butt;stroke-linejoin:miter;stroke:rgb(0%,0%,0%);stroke-opacity:1;stroke-miterlimit:10;" d="M 169.414062 110.703125 L 149.847656 127.660156 "/>
<path style="fill:none;stroke-width:1.2;stroke-linecap:butt;stroke-linejoin:miter;stroke:rgb(0%,0%,0%);stroke-opacity:1;stroke-miterlimit:10;" d="M 234.167969 155.769531 L 249.457031 161.058594 "/>
<path style="fill:none;stroke-width:1.2;stroke-linecap:butt;stroke-linejoin:miter;stroke:rgb(20%,80%,80%);stroke-opacity:1;stroke-miterlimit:10;" d="M 249.457031 161.058594 L 264.75 166.347656 "/>
<path style="fill:none;stroke-width:1.2;stroke-linecap:butt;stroke-linejoin:miter;stroke:rgb(0%,0%,0%);stroke-opacity:1;stroke-miterlimit:10;" d="M 234.167969 155.769531 L 228.875 171.0625 "/>
<path style="fill:none;stroke-width:1.2;stroke-linecap:butt;stroke-linejoin:miter;stroke:rgb(20%,80%,80%);stroke-opacity:1;stroke-miterlimit:10;" d="M 228.875 171.0625 L 223.585938 186.351562 "/>
<path style="fill:none;stroke-width:1.2;stroke-linecap:butt;stroke-linejoin:miter;stroke:rgb(0%,0%,0%);stroke-opacity:1;stroke-miterlimit:10;" d="M 234.167969 155.769531 L 239.457031 140.476562 "/>
<path style="fill:none;stroke-width:1.2;stroke-linecap:butt;stroke-linejoin:miter;stroke:rgb(20%,80%,80%);stroke-opacity:1;stroke-miterlimit:10;" d="M 239.457031 140.476562 L 244.746094 125.183594 "/>
<path style=" stroke:none;fill-rule:nonzero;fill:rgb(100%,100%,100%);fill-opacity:1;" d="M 260.75 158.347656 L 268.75 158.347656 L 268.75 174.347656 L 260.75 174.347656 Z M 260.75 158.347656 "/>
<g style="fill:rgb(20%,80%,80%);fill-opacity:1;">
  <use xlink:href="#glyph0-1" x="260.75" y="170.723633"/>
</g>
<path style=" stroke:none;fill-rule:nonzero;fill:rgb(100%,100%,100%);fill-opacity:1;" d="M 215.585938 178.351562 L 223.585938 178.351562 L 223.585938 194.351562 L 215.585938 194.351562 Z M 215.585938 178.351562 "/>
<g style="fill:rgb(20%,80%,80%);fill-opacity:1;">
  <use xlink:href="#glyph0-1" x="215.585938" y="190.727539"/>
</g>
<path style=" stroke:none;fill-rule:nonzero;fill:rgb(100%,100%,100%);fill-opacity:1;" d="M 240.746094 117.183594 L 248.746094 117.183594 L 248.746094 133.183594 L 240.746094 133.183594 Z M 240.746094 117.183594 "/>
<g style="fill:rgb(20%,80%,80%);fill-opacity:1;">
  <use xlink:href="#glyph0-1" x="240.746094" y="129.55957"/>
</g>
<path style="fill:none;stroke-width:1.2;stroke-linecap:butt;stroke-linejoin:miter;stroke:rgb(0%,0%,0%);stroke-opacity:1;stroke-miterlimit:10;" d="M 80.347656 249.558594 L 48.824219 242.234375 "/>
<path style="fill:none;stroke-width:1.2;stroke-linecap:butt;stroke-linejoin:miter;stroke:rgb(0%,0%,0%);stroke-opacity:1;stroke-miterlimit:10;" d="M 48.824219 242.234375 L 46.050781 209.988281 "/>
</g>
</svg>

<svg xmlns="http://www.w3.org/2000/svg" xmlns:xlink="http://www.w3.org/1999/xlink" width="300pt" height="300pt" viewBox="0 0 300 300"><defs><symbol overflow="visible"><path d="M.64 2.297v-11.47h6.5v11.47zm.735-.72h5.047V-8.436H1.375zm0 0"/></symbol><symbol overflow="visible" id="a"><path d="M1.28-9.484h5.44v1.093H2.562v2.78h3.75v1.08h-3.75V0H1.28zm0 0"/></symbol><symbol overflow="visible" id="b"><path d="M1.28-9.484H3l4.203 7.937v-7.937h1.25V0H6.72L2.515-7.922V0H1.28zm0 0"/></symbol></defs><g><path fill="#fff" d="M0 0h300v300H0z"/><path d="M42.164 50.44l6.3 14.904" stroke-width="1.2" stroke="#3cc" stroke-miterlimit="10" fill="none"/><path d="M48.465 65.344l6.3 14.906" stroke-width="1.2" stroke="#000" stroke-miterlimit="10" fill="none"/><path d="M34.164 42.44h8v16h-8zm0 0" fill="#fff"/><use xlink:href="#a" x="34.164" y="54.817" fill="#3cc"/><path d="M54.766 80.25l32.113 3.988M57.035 88.203l25.692 3.195M35.25 106.066L54.766 80.25M86.88 84.238l12.6 29.81M99.48 114.047l-19.515 25.816M91.453 112.04l-15.61 20.65M79.965 139.863l-32.113-3.988M79.965 139.863l12.6 29.81M47.852 135.875l-12.602-29.81M53.605 129.93l-10.082-23.848M92.566 169.672L75.86 197.387M97.418 176.375L84.05 198.547M124.09 177l-31.524-7.328M75.86 197.387l10.597 12.23" stroke-width="1.2" stroke="#000" stroke-miterlimit="10" fill="none"/><path d="M86.457 209.617l10.598 12.227" stroke-width="1.2" stroke="#00f" stroke-miterlimit="10" fill="none"/><path d="M46.05 209.988l29.81-12.6" stroke-width="1.2" stroke="#000" stroke-miterlimit="10" fill="none"/><path d="M97.055 221.844l29.808-12.602M97.055 221.844L88.703 235.7" stroke-width="1.2" stroke="#00f" stroke-miterlimit="10" fill="none"/><path d="M88.703 235.7l-8.355 13.86" stroke-width="1.2" stroke="#000" stroke-miterlimit="10" fill="none"/><path d="M92.055 213.844h10v16h-10zm0 0" fill="#fff"/><use xlink:href="#b" x="92.055" y="226.22" fill="#00f"/><path d="M126.863 209.242l-1.386-16.12" stroke-width="1.2" stroke="#00f" stroke-miterlimit="10" fill="none"/><path d="M125.477 193.12L124.09 177" stroke-width="1.2" stroke="#000" stroke-miterlimit="10" fill="none"/><path d="M119 206.672l-1.11-12.9" stroke-width="1.2" stroke="#00f" stroke-miterlimit="10" fill="none"/><path d="M117.89 193.773l-1.11-12.898" stroke-width="1.2" stroke="#000" stroke-miterlimit="10" fill="none"/><path d="M121.863 201.242h10v16h-10zm0 0" fill="#fff"/><use xlink:href="#b" x="121.863" y="213.618" fill="#00f"/><path d="M124.09 177l24.453-21.195M148.543 155.805l15.293 5.29" stroke-width="1.2" stroke="#000" stroke-miterlimit="10" fill="none"/><path d="M163.836 161.094l15.293 5.29" stroke-width="1.2" stroke="#00f" stroke-miterlimit="10" fill="none"/><path d="M154.094 149.664l12.23 4.234" stroke-width="1.2" stroke="#000" stroke-miterlimit="10" fill="none"/><path d="M166.324 153.898l12.235 4.23" stroke-width="1.2" stroke="#00f" stroke-miterlimit="10" fill="none"/><path d="M142.414 124.027l6.13 31.778" stroke-width="1.2" stroke="#000" stroke-miterlimit="10" fill="none"/><path d="M179.13 166.383l12.225-10.598" stroke-width="1.2" stroke="#00f" stroke-miterlimit="10" fill="none"/><path d="M191.355 155.785l12.227-10.597" stroke-width="1.2" stroke="#000" stroke-miterlimit="10" fill="none"/><path d="M174.13 158.383h10v16h-10zm0 0" fill="#fff"/><use xlink:href="#b" x="174.129" y="170.759" fill="#00f"/><path d="M203.582 145.188l-6.13-31.778M195.492 143.453l-4.902-25.422M203.582 145.188l30.586 10.582M197.453 113.41l-30.582-10.578M166.87 102.832l-24.456 21.195M169.414 110.703l-19.566 16.957M234.168 155.77l15.29 5.29" stroke-width="1.2" stroke="#000" stroke-miterlimit="10" fill="none"/><path d="M249.457 161.06l15.293 5.288" stroke-width="1.2" stroke="#3cc" stroke-miterlimit="10" fill="none"/><path d="M234.168 155.77l-5.293 15.292" stroke-width="1.2" stroke="#000" stroke-miterlimit="10" fill="none"/><path d="M228.875 171.063l-5.29 15.29" stroke-width="1.2" stroke="#3cc" stroke-miterlimit="10" fill="none"/><path d="M234.168 155.77l5.29-15.293" stroke-width="1.2" stroke="#000" stroke-miterlimit="10" fill="none"/><path d="M239.457 140.477l5.29-15.293" stroke-width="1.2" stroke="#3cc" stroke-miterlimit="10" fill="none"/><path d="M260.75 158.348h8v16h-8zm0 0" fill="#fff"/><use xlink:href="#a" x="260.75" y="170.724" fill="#3cc"/><path d="M215.586 178.352h8v16h-8zm0 0" fill="#fff"/><use xlink:href="#a" x="215.586" y="190.728" fill="#3cc"/><path d="M240.746 117.184h8v16h-8zm0 0" fill="#fff"/><use xlink:href="#a" x="240.746" y="129.56" fill="#3cc"/><path d="M80.348 249.56l-31.524-7.326M48.824 242.234l-2.773-32.246" stroke-width="1.2" stroke="#000" stroke-miterlimit="10" fill="none"/></g></svg>
